X: 99
T: Prayer.
C: words: L. H.
C: music: Old Tune.
N: Copyright, 1916, by The Cable Company.
%R: air, waltz
B: "The Everyday Song Book", 1927
F: http://www.library.pitt.edu/happybirthday/pdf/The_Everyday_Song_Book.pdf
Z: 2017 John Chambers <jc:trillian.mit.edu>
M: 3/4
L: 1/4
K: A
% - - - - - - - - - - - - - - - - - - - - - - - - - - - - -
[|\
E2 A | c2 A | G2 B | (d c) B | e2 c|
w: 1.~Hear, O Lord, Thy chil-dren sing-*ing, Hear the
w: 2.~In our work-ing and our play-*ing,     When we're
%
A2 B | (c d) c | (B G) E | c2 A F3 |
w: praise their hearts* are bring-*ing; Fa-ther mild,
w: hum-bly, low-*ly pray-*ing,          Fa-ther mild,
%
d2 B | G3 | (e c) A | (c d) B | G3 | A3 |]
w: Bless each child Kneel-*ing now* be-fore thee.
w: Make each child  Wor-*thy to* a-dore thee.
% - - - - - - - - - - - - - - - - - - - - - - - - - - - - -
